icons/Backspace_filled.svg

<svg width="24" height="24" viewBox="0 0 24 24" fill="none" xmlns="http://www.w3.org/2000/svg">
<path fill-rule="evenodd" clip-rule="evenodd" d="M18.2502,5c0.9665,0 1.75,0.7835 1.75,1.75v10.5c0,0.9665 -0.7835,1.75 -1.75,1.75h-9.73773c-0.56284,0 -1.09132,-0.2707 -1.42019,-0.7275l-3.67482,-5.1039c-0.50258,-0.698 -0.50258,-1.6392 0,-2.3372l3.67482,-5.10393c0.32887,-0.45676 0.85735,-0.72747 1.42019,-0.72747zM16.0303,10.0303c0.2929,-0.29287 0.2929,-0.76774 0,-1.06063c-0.2928,-0.2929 -0.7677,-0.2929 -1.0606,0l-1.9697,1.96963l-1.9697,-1.9696c-0.2928,-0.2929 -0.7677,-0.2929 -1.06062,0c-0.29289,0.29289 -0.29289,0.76777 0.00001,1.0607l1.96961,1.9696l-1.96961,1.9697c-0.2929,0.2929 -0.2929,0.7677 0,1.0606c0.29291,0.2929 0.76781,0.2929 1.06061,0l1.9697,-1.9696l1.9697,1.9696c0.2929,0.2929 0.7678,0.2929 1.0606,0c0.2929,-0.2929 0.2929,-0.7677 0,-1.0606l-1.9696,-1.9697z" fill="#002B51"/>
</svg>

<svg width="24" height="24" viewBox="0 0 24 24" fill="none" xmlns="http://www.w3.org/2000/svg">
<path fill-rule="evenodd" clip-rule="evenodd" d="M8.51247 5C7.94963 5 7.42115 5.27071 7.09228 5.72747L3.41746 10.8314C2.91488 11.5294 2.91488 12.4706 3.41746 13.1686L7.09228 18.2725C7.42115 18.7293 7.94963 19 8.51247 19H18.2502C19.2167 19 20.0002 18.2165 20.0002 17.25V6.75C20.0002 5.7835 19.2167 5 18.2502 5H8.51247ZM16.0303 10.0303C16.3232 9.73743 16.3232 9.26256 16.0303 8.96967C15.7375 8.67677 15.2626 8.67677 14.9697 8.96967L13 10.9393L11.0303 8.9697C10.7375 8.6768 10.2626 8.6768 9.96968 8.9697C9.67679 9.26259 9.67679 9.73747 9.96969 10.0304L11.9393 12L9.96969 13.9697C9.67679 14.2626 9.67679 14.7374 9.96969 15.0303C10.2626 15.3232 10.7375 15.3232 11.0303 15.0303L13 13.0607L14.9697 15.0303C15.2626 15.3232 15.7375 15.3232 16.0303 15.0303C16.3232 14.7374 16.3232 14.2626 16.0303 13.9697L14.0607 12L16.0303 10.0303Z" fill="#002B51"/>
</svg>
